X: 264
T: How About Whiskey Instead?
T: The Humours Of Whiskey
R: slip jig
M: 9/8
L: 1/8
K: Emin
|:BcA BEE BEE|BcA BEE FED|BcA BEE BEE|FAA A2G FED:|
|:G2A BcA BcA|G2A Bcd eAA|G2A BcA Bcd|eAA A2G FED:|

